X:1
T:Angel Band
M:3/4
L:1/4
K:A
 E| E2 E| E2 E| F2 A| A2 F| E- A B| c2 B| A3| z2 E| E2 E| E2 E| F2 A|\
 A2 F| E- A B| c2 B| A3| z3| B3| B3| c2 B| A3| B3| B- A B| c2 B| A2 A|\
 F A A| B A F| E2 F| E2 E| A2 A| B- A B| c2- c/2- B/2-| A2 A| F A A|\
 B A F| E2 F| E2 E| A2 B| c2 B| A3| z3|
